X:1
T:Jessie the flow'r o'Dumblan
T:Jessie the flow'r o'Dumblan
T:favorite Scottish song 
T:Robert Archibald Smith - 1780-1829 
T:Robert Tannahill - 1774 – 1810
T:2. She's modest as on-y and blythe as she's bonny, For guileless simplicity makes her its aim An' far be the villain, divested of feeling, Wha'd blight in its bloom, the sweet flow'r of Dunblane. Sing on, thou sweet Mavis, thy hymn to the evening, Thour't dear to the echoes of Calderwood glen. Sae dear to this bosom, sae artless and winning, Is charming young Jessie, the flow'r o' Dunblane. 3. How lost were my days till I met wi' my Jessie, The sports o' the city seem'd foolish and vain, I ne'er saw a nymph I would ca' my dear lassie, Till charm'd wi' sweet Jessie, the flow'r o' Dublane. Though mine were the station of liftiest grandeur, Amidst its profusion I'd languish in pain, And reckon as naething, the height of its splendour If wanting sweet Jessie, the flow'r o' Dunblane. 
T:For the FLUTE
T: credit: Library of Congress, Music Division - public domain - https://www.loc.gov/item/2015561320/
T: credit: Library of Congress, Music Division - public domain - https://www.loc.gov/item/2015561320/
T: credit: Library of Congress, Music Division - public domain - https://www.loc.gov/item/2015561320/
C:Robert Archibald Smith - 1780-1829
Z:Robert Tannahill - 1774 – 1810
Z:credit: Library of Congress, Music Division - public domain - https://www.loc.gov/item/2015561320/
%%score 1 2 { ( 3 5 ) | ( 4 6 ) }
L:1/8
Q:1/4=110
M:6/8
K:Bb
V:1 treble nm="Flute"
V:2 treble nm="Soprano"
V:3 treble nm="Piano"
V:5 treble 
V:4 bass 
V:6 bass 
V:1
"^Andante" z | z6 | z6 | z6 | z6 | z6 | z6 | z6 | z4 z |: z | z6 | z6 | z6 | z6 | z6 | z6 | z6 | %17
 z6 | z6 | z4 z || z | z6 | z6 | z6 | z6 | z6 | z6 | z6 | z6 | z6 | z6 | z6 | z6 | z6 | z6 | z6 | %36
[K:D] z5 :| !fermata!z |[Q:1/4=92]"^Andante" (d/e/) | (e>g)f (e>a)f | (d>c)d (e<c)(d/B/) | %41
 (A>B)G F>Ad | (d>e)f{f} e2 (d/e/) | (e>g)f (e>a)f | (d>c)d (e<c)(d/B/) | (A>B)G (F>A)d | %46
 (e>B)c d2 || f | (f>d)e (f>b)a | f<de (f<d)e | (e>c)d (e>a)g | (e<c)B{B} A2 (A/>d/) | d>cd f<de | %53
 (f>a)f (g<e)f | (g>a)b (a<f)d | (e>B)c d2 d/{cedcd}B/ | A>B(G F<)A (d/e/) | (f>a)f3/2 (g/e)f | %58
 (g>a)b3/2 (a/f)d | e>Bc d2 |] %60
V:2
 z | z6 | z6 | z6 | z6 | z6 | z6 | z6 | z5 |: B/c/ | d3/2 e/ d c3/2 f/ d | %11
w: |||||||||The *|sun has gane down o'er the|
 B3/2 A/ B c/ A3/2 (B/G/) | F3/2 G/ E D3/2 F/ B | B3/2 c/ d{d} c2 B/c/ | d3/2 e/ d c3/2 f/ d | %15
w: lof\- ty Ben Lo\- mond, And *|left the red clouds to pre\-|side o'er the scene While *|lane\- ly I stray in the|
 B3/2 A/ B c/ A3/2 (B/G/) | F3/2 G/ E D3/2 F/ B |{d} c>GA B2 z | z6 | z2 z z2 || d | %21
w: calm sim\- mer gloa\- ming, To *|muse on sweet JES\- SIE the|flow'r o' Dunb\- lane|||How|
 d3/2 B/ c d3/2 g/ f | d B c d/ B3/2 c | c3/2 A/ B c3/2 f/ d | %24
w: sweet is the brier wi' its|saft faul\- ding blos\- som, And|sweet is the birk wi' its|
 c/ A3/2 G{!fermata!G} !fermata!F2"^cresc." F/>B/ | B3/2 d/ c d/ B3/2 c | d3/2 g/ d e/ c3/2!f! d | %27
w: man\- tle o' green Yet *|swee\- ter an' fair\- er an'|dear to this bo\- som, Is|
 e3/2 f/ g f/ d3/2 B |{d} c3/2 G/ A B2"^Espress." B/{AcBABG}G/ | %29
w: love\- ly young JES\- SIE the|flow'r o' Dunb\- lane, is *|
 F3/2 G/ E D/ F3/2"^Lentando." (B/c/) | d3/2 f/ d e/ !fermata!c3/2 d | %31
w: love\- ly young JES\- SIE, is *|love\- ly young JES\- SIE, is|
"^Tempo." e3/2 f/ g f/ d3/2 B |{d} c3/2 G/ A B2 z | z6 | z6 | z6 |[K:D] z5 :| z | z | z6 | z6 | %41
w: love\- ly young JES\- SIE the|flow'r o' Dunb\- lane|||||||||
 z6 | z6 | z6 | z6 | z6 | z4 z || z | z6 | z6 | z6 | z6 | z6 | z6 | z6 | z6 | z6 | z6 | z6 | %59
w: ||||||||||||||||||
 z4 z |] %60
w: |
V:3
 B/c/ | d>ed c>fd | B>AB c<A B/A/ | F>GE D<FB | !turn!B>c[Bd] [Ac]z/e/d/f/ | %5
 b/f'/d'/f'/d'/b/ b/f'/d'/f'/d'/b/ | %6
"_cresc." (3b/d'/f'/ (3b/d'/f'/ d'/b/ (3a/c'/e'/ (3a/c'/e'/!f! c'/a/ | b/d'/c'/b/a/g/ f>dB | %8
 c>G[FA] [DB]2 |: B/c/ | [Bd]>[ce][Bd] c>f[Fd] | [FB]>AB c<A B/G/ | F>GE D>FB | %13
 B>c[Bd]{[Bd]} [Ac]2 B/c/ | [Bd]>[ce][Bd] c>f[Fd] | [FB]>AB c<A B/G/ | F>GE D>FB | %17
 [Gc]>G[FA] [DB]3/2g/4f/4 e/4d/4c/4B/4 | A/<f/=e/<f/e/c/ B/<b/a/<b/f/<d/ | c/e/G[EA] [DB]2 || %20
 [Fd] | d>B[Ac] [Bd]>g[df] | [Fd][FB][Ec] d<B[Bc] | [Ac]>[FA][FB] [Ac]>f[Fd] | %24
 c<A[=EG] !fermata![A,F]2 F | B>dc d<B[Ac] | d>f[Bd] e<c[Bd] | [Be]>f[Bg] f<d[FB] | %28
 [Gc]>G[DA] [DB]2 [GB]/[EG]/ | [DF][EG][CE] [B,D]2 z | [FAd]3 !fermata![FAc]2 [Bd] | %31
 [Be]>f[Bg] f<d[FB] | [Gc]>G[EA] [DB]>[Bd][df] | b/f'/d'/f'/d'/b/ b/f'/d'/f'/d'/b/ | %34
"_cresc." (3b/d'/f'/ (3b/d'/f'/ d'/b/ (3a/c'/e'/ (3a/c'/e'/!f! c'/a/ | b/d'/c'/b/a/g/ f>dB | %36
[K:D] =c>G[=FA] [D_B]2 :| z | z | z6 | z6 | z6 | z6 | z6 | z6 | z6 | z5 || z | z6 | z6 | z6 | z6 | %52
 z6 | z6 | z6 | z6 | z6 | z6 | z6 | z5 |] %60
V:4
 z | [B,,F,]2 z [F,A,]2 z | [D,B,]2 z F,2 E, | D,2 C, B,,F,E, | D,C,B,, F,F,, z | %5
[K:treble] [Bd] z [Bd] [Fc] z [Fc] | [Bd] z [Bd] [Fc] z [Fc] | %7
 d/B/A/G/F/E/[K:bass] D/B,/F,/B,/D,/B,/ | E,/D,/C,/E,/F,/F,,/ B,,B,,, |: z | B,,3 A,2 B, | %11
 DCB, F,[I:staff -1]FE | D2[I:staff +1] A, B,F,E, | D,C,B,, F,/F,,/F,/E,/ D,/C,/ | B,,3 A,2 B, | %15
 DCB, F,[I:staff -1]FE | D2[I:staff +1] A, B,F,E, | E,2 F, B,,B, z | F,G,A, B,B,,D, | %19
 E,2 F, B,,2 || z | B,,D,F, B,,D,F, | B,,D,F, B,,2 z | F,A,C F,A,B, | C2 E/D/ !fermata!F,2 F,/E,/ | %25
 D,2 F, B,,D,F, | B,,D,F, F,,C,F, | G,F,E, B,B,,D, | E,2 F, B,,2 z | B,,2 z B,,2 z | %30
 [B,,B,]3 !fermata![F,,F,]2 z | G,F,E, B,B,,D, | E,2 F, B,,2 z | %33
[K:treble] [Bd] z [Bd] [Fc] z [Fc] | [Bd] z [Bd] [Fc] z [Fc] | %35
 d/B/A/G/F/E/[K:bass] D/B,/F,/B,/D,/B,/ |[K:D] _E,/D,/=C,/E,/=F,/=F,,/ _B,,_B,,, :| z | z | z6 | %40
 z6 | z6 | z6 | z6 | z6 | z6 | z5 || z | z6 | z6 | z6 | z6 | z6 | z6 | z6 | z6 | z6 | z6 | z6 | %59
 z5 |] %60
V:5
 x | x6 | x6 | x6 | x6 | x6 | x6 | x6 | x5 |: x | x3 A2 x | x6 | x6 | x6 | x3 A2 x | x6 | x6 | x6 | %18
 x6 | x5 || x | F2 x4 | x3 D2 z | x6 | F2 x4 | x6 | x6 | x3 B2 x | x6 | x6 | x6 | x3 B2 z | x6 | %33
 x6 | x6 | x6 |[K:D] x5 :| x | x | x6 | x6 | x6 | x6 | x6 | x6 | x6 | x5 || x | x6 | x6 | x6 | x6 | %52
 x6 | x6 | x6 | x6 | x6 | x6 | x6 | x5 |] %60
V:6
 x | x6 | x6 | x6 | x6 |[K:treble] x6 | x6 | x3[K:bass] x3 | x5 |: x | x6 | x6 | x6 | x6 | x6 | %15
 x6 | x6 | x6 | x6 | x5 || x | x6 | x6 | x6 | x2 C, x3 | x6 | x6 | x6 | x6 | x6 | x6 | x6 | x6 | %33
[K:treble] x6 | x6 | x3[K:bass] x3 |[K:D] x5 :| x | x | x6 | x6 | x6 | x6 | x6 | x6 | x6 | x5 || %47
 x | x6 | x6 | x6 | x6 | x6 | x6 | x6 | x6 | x6 | x6 | x6 | x5 |] %60

